X: 21142
T: Just as I was in the morning
%R: jig
B: James Oswald "The Caledonian Pocket Companion" v.2 p.114 #2
Z: 2018 John Chambers <jc:trillian.mit.edu>
N: Added missing beam to FG bar 3.
M: 6/8
L: 1/8
K: D
e |\
d2D (F/G/A)F | EFE cBc |\
d2D (F/G/A)F | A3 f2 :: e |\
d2a afd | c2a ecA |
ded afd | Tf3 a3 |\
gbg (f/g/)af | gBe TcBc |\
d2D (F/G/A)F | A3 f2 :|


